app/assets/images/alert/warning.svg

<svg width="100" height="100" viewBox="0 0 100 100" fill="none" xmlns="http://www.w3.org/2000/svg"><g filter="url(#filter0_d_119_1056)"><path d="M50 94C74.3005 94 94 74.3005 94 50C94 25.6995 74.3005 6 50 6C25.6995 6 6 25.6995 6 50C6 74.3005 25.6995 94 50 94Z" fill="white"/></g><path d="M49.9994 89.6008C71.8703 89.6008 89.6003 71.8709 89.6003 49.9999C89.6003 28.1289 71.8703 10.399 49.9994 10.399C28.1284 10.399 10.3984 28.1289 10.3984 49.9999C10.3984 71.8709 28.1284 89.6008 49.9994 89.6008Z" fill="#F5D600"/><path d="M49.9992 85.6408C69.6831 85.6408 85.6401 69.6838 85.6401 50C85.6401 30.3161 69.6831 14.3591 49.9992 14.3591C30.3153 14.3591 14.3584 30.3161 14.3584 50C14.3584 69.6838 30.3153 85.6408 49.9992 85.6408Z" fill="white"/><path d="M33.7155 64.6719C31.9875 64.6719 30.4417 63.7784 29.5823 62.2791C28.7229 60.7798 28.7291 58.996 29.6009 57.5029L45.8895 29.6462C46.7551 28.1685 48.2915 27.2875 50.0011 27.2875C51.7106 27.2875 53.2502 28.1685 54.1157 29.6462L70.4044 57.4998C71.2761 58.9899 71.2854 60.7767 70.426 62.276C69.5666 63.7754 68.0209 64.6688 66.2928 64.6688H33.7155V64.6719Z" fill="#F5D600"/><path d="M50.001 27.2906C51.7105 27.2906 53.2439 28.1747 54.1095 29.6493L70.3981 57.506C71.2699 58.9992 71.276 60.7829 70.4166 62.2822C69.5572 63.7816 68.0115 64.675 66.2834 64.675H50.001V27.2906Z" fill="#CAB000"/><path d="M50.0009 58.3932C51.1448 58.3932 52.0722 57.4659 52.0722 56.322C52.0722 55.1781 51.1448 54.2507 50.0009 54.2507C48.857 54.2507 47.9297 55.1781 47.9297 56.322C47.9297 57.4659 48.857 58.3932 50.0009 58.3932Z" fill="#1B1B1B"/><path d="M47.9297 39.7521H52.0722V52.1796H47.9297V39.7521Z" fill="#1B1B1B"/><defs><filter id="filter0_d_119_1056" x="0" y="0" width="100" height="100" filterUnits="userSpaceOnUse" color-interpolation-filters="sRGB"><feFlood flood-opacity="0" result="BackgroundImageFix"/><feColorMatrix in="SourceAlpha" type="matrix" values="0 0 0 0 0 0 0 0 0 0 0 0 0 0 0 0 0 0 127 0" result="hardAlpha"/><feOffset/><feGaussianBlur stdDeviation="3"/><feColorMatrix type="matrix" values="0 0 0 0 0 0 0 0 0 0 0 0 0 0 0 0 0 0 0.24 0"/><feBlend mode="normal" in2="BackgroundImageFix" result="effect1_dropShadow_119_1056"/><feBlend mode="normal" in="SourceGraphic" in2="effect1_dropShadow_119_1056" result="shape"/></filter></defs></svg>

<svg width="100" height="100" viewBox="0 0 100 100" fill="none" xmlns="http://www.w3.org/2000/svg"><g filter="url(#a)"><path d="M50 94c24.3 0 44-19.7 44-44S74.3 6 50 6 6 25.7 6 50s19.7 44 44 44Z" fill="#fff"/></g><path d="M50 89.6c21.87 0 39.6-17.73 39.6-39.6 0-21.871-17.73-39.601-39.6-39.601-21.872 0-39.602 17.73-39.602 39.6 0 21.872 17.73 39.602 39.601 39.602Z" fill="#F5D600"/><path d="M50 85.64c19.683 0 35.64-15.956 35.64-35.64S69.683 14.36 50 14.36c-19.685 0-35.642 15.956-35.642 35.64S30.315 85.64 50 85.64Z" fill="#fff"/><path d="M33.715 64.672a4.713 4.713 0 0 1-4.133-2.393 4.717 4.717 0 0 1 .019-4.776l16.288-27.857a4.72 4.72 0 0 1 4.112-2.358c1.71 0 3.25.88 4.115 2.358L70.404 57.5a4.717 4.717 0 0 1 .022 4.776 4.712 4.712 0 0 1-4.133 2.393H33.715v.003Z" fill="#F5D600"/><path d="M50.001 27.29a4.72 4.72 0 0 1 4.108 2.36L70.4 57.505a4.717 4.717 0 0 1 .018 4.776 4.712 4.712 0 0 1-4.134 2.393H50.001V27.291Z" fill="#CAB000"/><path d="M50 58.393a2.071 2.071 0 1 0 0-4.142 2.071 2.071 0 0 0 0 4.142Zm-2.07-18.641h4.142V52.18H47.93V39.752Z" fill="#1B1B1B"/><defs><filter id="a" x="0" y="0" width="100" height="100" filterUnits="userSpaceOnUse" color-interpolation-filters="sRGB"><feFlood flood-opacity="0" result="BackgroundImageFix"/><feColorMatrix in="SourceAlpha" values="0 0 0 0 0 0 0 0 0 0 0 0 0 0 0 0 0 0 127 0" result="hardAlpha"/><feOffset/><feGaussianBlur stdDeviation="3"/><feColorMatrix values="0 0 0 0 0 0 0 0 0 0 0 0 0 0 0 0 0 0 0.24 0"/><feBlend in2="BackgroundImageFix" result="effect1_dropShadow_119_1056"/><feBlend in="SourceGraphic" in2="effect1_dropShadow_119_1056" result="shape"/></filter></defs></svg>
